X:1
Q:1/4=120
L:1/8
M:2/4
K:C clef=G2
V:1
%%MIDI program 57
G7/4z3/16^Fz/2A7/16|G7/4(5:4z/4D7/4z/4|A/2z3/16(5:3BcBz/2A7/16|B7/4(5:4z/4G7/8zz/8|
G7/4(5:4z/4^Fz/2A7/16|G7/4(5:4z/4D7/4z/4|A/2z3/16(5:3BcBz/2A7/16|G2-G3/4z(5:3z/2|
G7/4z/4^Fz/2A7/16|G7/4(5:4z/4D7/4z/4|A/2z3/16(5:3BcBz/2A7/16|B7/4(5:4z/4G7/8zz/8|
G7/4(5:4z/4^Fz/2A7/16|G7/4(5:4z/4D7/4z/4|A/2z3/16(5:3BcBz/2A7/16|G7/4(5:4z/4G^FG|
Az31/64A7/16Dz/2D7/16|Az31/64A7/16Dz/2D7/16|Bz31/64c7/16dz/2e7/16|d7/4(5:4z/4G^FG|
Az31/64A7/16Dz/2D7/16|Az31/64A7/16Dz/2D7/16|B/2z3/16(5:3cBABA|G7/4(5:4z/4G^FG|
Az31/64A7/16Dz/2D7/16|Az31/64A7/16Dz/2D7/16|Bz31/64c7/16dz/2e7/16|d7/4(5:4z/4G^FG|
Az31/64A7/16Dz/2D7/16|Az31/64A7/16Dz/2D7/16|B/2z3/16(5:3cBABA|G7/4(5:4z/4GEG|
c7/4(5:4z/4c7/4z/4|d7/4z/4dz/2d7/16|ez31/64d7/16cz/2d7/16|e7/4(5:4z/4fed|
e7/4(5:4z/4c7/4z/4|d7/4z/4Bz/2B7/16|c4-c|zz31/32(5:3GEG|
c7/4z/4c7/4(5:4z/4|d7/4z/4d7/8z/8d7/8z/8|ez31/64d7/16cz/2d7/16|e7/4(5:4z/4fed|
e7/4(5:4z/4c7/4z/4|d7/4z/4Bz/2B7/16|c4-c|z4|
G7/4z3/16^Fz/2A7/16|G7/4(5:4z/4D7/4z/4|A/2z3/16(5:3BcBz/2A7/16|B7/4(5:4z/4G7/8zz/8|
G7/4(5:4z/4^Fz/2A7/16|G7/4(5:4z/4D7/4z/4|A/2z3/16(5:3BcBz/2A7/16|G2-G3/4z(5:3z/2|
G7/4z/4^Fz/2A7/16|G7/4(5:4z/4D7/4z/4|A/2z3/16(5:3BcBz/2A7/16|B7/4(5:4z/4G7/8zz/8|
G7/4(5:4z/4^Fz/2A7/16|G7/4(5:4z/4D7/4z/4|A/2z3/16(5:3BcBz/2A7/16|G7/4
L:1/8
M:2/4
K:C clef=G2
V:2
%%MIDI program 60
[DG]7/4z3/16D7/4(5:4z/4|[GD]7/4z/4D7/4z7/32|zz31/32D7/4(5:4z/4|[DB]7/4z/4[GB,]7/8zz/8|
[GD]7/4(5:4z/4D7/4z/4|[GD]7/4z/4D7/4(5:4z/4|E7/4z/4[D^F]7/4z/4|[GB,]14/4(5:4z/2|
[DG]7/4z/4D7/4z/4|[GB,]7/4(5:4z/4D7/4z7/32|zz31/32D7/4(5:4z/4|[BD]7/4z/4[GB,]7/8zz/8|
[GD]7/4(5:4z/4D7/4z/4|[GB,]7/4z/4D7/4(5:4z/4|E7/4z/4[^FC]7/4z/4|[GD]7/4(5:4z/4D7/4z/4|
^F7/4z2z7/32|z2zz31/32|Bz31/64c7/16dz/2e7/16|d7/4(5:4z/4D7/4z/4|
^F7/4z2z7/32|z2zz31/32|G7/4(5:4z/4^F7/4z/4|[DG]7/4z/4B,7/4(5:4z/4|
D7/4z2z7/32|z2zz31/32|Bz31/64c7/16dz/2e7/16|d7/4(5:4z/4D7/4z/4|
^F7/4z2z7/32|z4|zz31/32C7/4(5:4z/4|[B,G]7/4z2z/4|
[EcG]7/4(5:4z/4[CcG]7/4z/4|[GBd]7/4z/4[dDG]7/4(5:4z/4|[ce]z31/64[Gd]7/16[Ec]z/2[Gd]7/16|[ce]7/4(5:4z/4[fA][Ge][Ad]|
[Ge]7/4(5:4z/4[EGc]7/4z/4|[GdB]7/4z/4[DGB]z/2[BDG]7/16|[cGE]7/4(5:4z/4GEG|C7/4(5:4z/4GEG|
[cGE]7/4(5:4z/4[cCG]7/4z/4|[dGB]7/4z/4[DdG]7/8z/8[DGd]7/8z/8|[ec]z31/64[dG]7/16[cE]z/2[dG]7/16|[ec]7/4(5:4z/4[Af][Ge][dFA]|
[GEe]7/4(5:4z/4[EcG]7/4z/4|[dFB]7/4z/4[BDF]z/2[DBF]7/16|[EcG]7/4(5:4z/4GEG|[cE]7/4z2z7/32|
[DG]7/4z3/16D7/4(5:4z/4|[GD]7/4z/4D7/4z7/32|zz31/32D7/4(5:4z/4|[DB]7/4z/4[GB,]7/8zz/8|
[GD]7/4(5:4z/4D7/4z/4|[GD]7/4z/4D7/4(5:4z/4|E7/4z/4[D^F]7/4z/4|[GB,]14/4(5:4z/2|
[DG]7/4z/4D7/4z/4|[GB,]7/4(5:4z/4D7/4z7/32|zz31/32D7/4(5:4z/4|[BD]7/4z/4[GB,]7/8zz/8|
[GD]7/4(5:4z/4D7/4z/4|[GB,]7/4z/4D7/4(5:4z/4|E7/4z/4[^FC]7/4z/4|[GD]7/4
L:1/8
M:2/4
K:C clef=G2
V:3
%%MIDI program 60
zz31/32^Fz/2A7/16|z2zz31/32|A/2z3/16(5:3BcBz/2A7/16|z4|
zz31/32^Fz/2A7/16|z2zz31/32|A/2z3/16(5:3BcBz/2A7/16|z4|
zz31/32^Fz/2A7/16|z2zz31/32|A/2z3/16(5:3BcBz/2A7/16|z4|
zz31/32^Fz/2A7/16|z2zz31/32|A/2z3/16(5:3BcBz/2A7/16|zz31/32(5:3G^FG|
Az31/64A7/16Dz/2[D-]/2|[DA][D-]31/64[A-D]/4[A]7/32Dz/2D7/16|z4|zz31/32(5:3G^FG|
Az31/64A7/16Dz/2[D-]/2|[DA][D-]31/64[A-D]/4[A]7/32Dz|B/2z3/16(5:3cB[AA][BB][AA]|zz31/32(5:3G^FG|
Az31/64A7/16Dz/2[D-]/2|[DA][D-]31/64[A-D]/4[A]7/32Dz/2D7/16|z4|zz31/32(5:3G^FG|
Az31/64A7/16Dz/2[D-]/2|[DA][D-]31/64[A-D]/4[A]7/32Dz/2[D-]/2|[DB]/2[D-]3/16[D-c]/2[D-]/8[B-D]7/16[B]3/16(5:3ABA|z4|
z4|z4|z4|z4|
z4|z4|z4|z4|
z4|z4|z4|z4|
z4|z4|z4|z4|
zz31/32^Fz/2A7/16|z2zz31/32|A/2z3/16(5:3BcBz/2A7/16|z4|
zz31/32^Fz/2A7/16|z2zz31/32|A/2z3/16(5:3BcBz/2A7/16|z4|
zz31/32^Fz/2A7/16|z2zz31/32|A/2z3/16(5:3BcBz/2A7/16|z4|
zz31/32^Fz/2A7/16|z2zz31/32|A/2z3/16(5:3BcBz/2A7/16|zz3/4
L:1/8
M:2/4
K:C clef=F4
V:4
%%MIDI program 58
G,7/4z3/16D,7/4(5:4z/4|G,7/4z2z/4|G,7/4(5:4z/4D,7/4z/4|G,7/4z2(5:4z/4|
G,7/4z/4D,7/4z/4|G,7/4z2(5:4z/4|C,7/4z/4D,7/4z/4|G,7/4z2(5:4z/4|
G,7/4z/4D,7/4z/4|G,7/4z2(5:4z/4|G,7/4z/4D,7/4z/4|G,7/4z2(5:4z/4|
G,7/4z/4D,7/4z/4|G,7/4z2(5:4z/4|C,7/4z/4D,7/4z/4|G,7/4z2z7/32|
zz31/32^F,7/4z7/32|zz31/32^F,7/4z7/32|z4|z4|
zz31/32^F,7/4z7/32|zz31/32^F,7/4(5:4z/4|D,7/4z/4D,7/4z/4|G,,,7/4z2z7/32|
zz31/32^F,7/4z7/32|zz31/32^F,7/4z7/32|z4|z4|
z4|z4|z4|z2zz31/32|
C7/4(5:4z/4E,7/4z/4|G,7/4z/4B,7/4(5:4z/4|Cz31/32Cz/2D7/16|E7/4(5:4z/4DCD|
C7/4z2z7/32|zz31/32G,z/2G,7/16|z4|z2zz31/32|
C7/4(5:4z/4E,7/4z/4|G,7/4z/4B,7/4(5:4z/4|Cz31/64D7/16Cz/2D7/16|[EC]7/4(5:4z/4DCD|
C7/4z2(5:4z/4|G,7/4z2z/4|C,,7/4z2z7/32|z4|
G,7/4z3/16D,7/4(5:4z/4|G,7/4z2z/4|G,7/4(5:4z/4D,7/4z/4|G,7/4z2(5:4z/4|
G,7/4z/4D,7/4z/4|G,7/4z2(5:4z/4|C,7/4z/4D,7/4z/4|G,7/4z2(5:4z/4|
G,7/4z/4D,7/4z/4|G,7/4z2(5:4z/4|G,7/4z/4D,7/4z/4|G,7/4z2(5:4z/4|
G,7/4z/4D,7/4z/4|G,7/4z2(5:4z/4|C,7/4z/4D,7/4z/4|G,7/4
L:1/8
M:2/4
K:C clef=F4
V:5
%%MIDI program 57
z4|z4|z4|z4|
z4|z4|z4|z4|
z4|z4|z4|z4|
z4|z4|z4|z4|
z4|z4|zz31/32[DB,]z/2[CE]7/16|[B,D]7/4z2z7/32|
z4|z4|z4|z4|
z4|z4|zz31/32[DB,]z/2[CE]7/16|[DB,]7/4z2z7/32|
zz31/32^F,7/4z7/32|zz31/32^F,7/4(5:4z/4|D,7/4z/4D,7/4z/4|G,,,7/4z2z7/32|
z4|z4|z4|z4|
z4|z4|z4|z4|
z4|z4|z4|z4|
z4|z4|z4|z4|
z4|z4|z4|z4|
z4|z4|z4|z4|
z4|z4|z4|z4|
z4|z4|z4|zz3/4
L:1/8
M:2/4
K:C clef=F4
V:6
%%MIDI program 60
B,7/4z3/16C7/4(5:4z/4|B,7/4z/4B,7/4z/4|D7/4(5:4z/4^F7/4z/4|G7/4z/4D7/8zz/8|
B,7/4(5:4z/4C7/4z/4|B,7/4z/4B,7/4(5:4z/4|C7/4z/4C7/4z/4|D14/4(5:4z/2|
B,7/4z/4C7/4z/4|D7/4(5:4z/4B,7/4z/4|D7/4z/4^F7/4(5:4z/4|G7/4z/4D7/8zz/8|
B,7/4(5:4z/4C7/4z/4|D7/4z/4B,7/4(5:4z/4|C7/4z/4D7/4z/4|B,7/4(5:4z/4B,7/4z/4|
D7/4z/4C7/4(5:4z/4|^F7/4z/4C7/4z/4|Gz31/64A7/16Bz/2c7/16|B7/4(5:4z/4B,7/4z/4|
D7/4z/4C7/4(5:4z/4|^F7/4z/4[C-]3/2[D-C]/2[D-]7/32|[D-]3/2[D]31/128z/4C7/4(5:4z/4|B,7/4z/4D7/4z/4|
^F7/4(5:4z/4C7/4z/4|^F7/4z/4C7/4(5:4z/4|Gz31/64A7/16Bz/2c7/16|B7/4(5:4z/4B,7/4z/4|
D7/4z/4C7/4(5:4z/4|^F7/4z/4C7/4z/4|G7/4(5:4z/4^F7/4z/4|D7/4z/4(5:3GEG|
z4|z4|z4|z4|
z4|z4|z4|z4|
z4|z4|z4|z4|
z4|z4|z4|z4|
B,7/4z3/16C7/4(5:4z/4|B,7/4z/4B,7/4z/4|D7/4(5:4z/4^F7/4z/4|G7/4z/4D7/8zz/8|
B,7/4(5:4z/4C7/4z/4|B,7/4z/4B,7/4(5:4z/4|C7/4z/4C7/4z/4|D14/4(5:4z/2|
B,7/4z/4C7/4z/4|D7/4(5:4z/4B,7/4z/4|D7/4z/4^F7/4(5:4z/4|G7/4z/4D7/8zz/8|
B,7/4(5:4z/4C7/4z/4|D7/4z/4B,7/4(5:4z/4|C7/4z/4D7/4z/4|B,7/4
L:1/8
M:2/4
K:C clef=G2
V:7
%%MIDI program 57
z4|z4|z4|z4|
z4|z4|z4|z4|
z4|z4|z4|z4|
z4|z4|z4|z4|
z4|z4|z4|z4|
z4|z4|z4|z4|
z4|z4|z4|z4|
z4|z4|z4|z2zz31/32|
E7/4(5:4z/4G7/4z/4|G7/4z/4Gz/2G7/16|cz31/64G7/16Ez/2G7/16|c7/4(5:4z/4AGA|
G7/4(5:4z/4G7/4z/4|G7/4z/4Gz/2G7/16|G4-G|z2zz31/32|
E7/4(5:4z/4G7/4z/4|G7/4z/4G7/8z/8G7/8z/8|cz31/64G7/16Ez/2G7/16|c7/4(5:4z/4AGA|
G7/4(5:4z/4G7/4z/4|F7/4z/4Fz/2F7/16|E4-E|z4|
z4|z4|z4|z4|
z4|z4|z4|z4|
z4|z4|z4|z4|
z4|z4|z4|zz3/4
L:1/8
M:2/4
K:C clef=F4
V:8
%%MIDI program 42
G,,7/4z3/16D,,7/4(5:4z/4|G,,7/4z/4G,,7/4z/4|G,,7/4(5:4z/4D,,7/4z/4|G,,7/4z/4G,,7/8zz/8|
G,,7/4(5:4z/4D,,7/4z/4|G,,7/4z/4G,,7/4(5:4z/4|C,,7/4z/4D,,7/4z/4|G,,7/4(5:4z/4G,,7/4z/4|
G,,7/4z/4D,,7/4(5:4z/4|G,,7/4z/4G,,7/4z/4|G,,7/4(5:4z/4D,,7/4z/4|G,,7/4z/4G,,7/8zz/8|
G,,7/4(5:4z/4D,,7/4z/4|G,,7/4z/4G,,7/4(5:4z/4|C,,7/4z/4D,,7/4z/4|G,,7/4(5:4z/4G,,7/4z/4|
D,,7/4z/4D,7/4(5:4z/4|D,,7/4z/4D,7/4z/4|G,,7/4(5:4z/4G,7/4z/4|G,7/4z/4G,,7/4(5:4z/4|
D,,7/4z/4D,7/4z/4|D,,7/4(5:4z/4D,7/4z/4|D,,7/4z/4D,,7/4(5:4z/4|G,,7/4z/4G,,7/4z/4|
D,,7/4(5:4z/4D,7/4z/4|D,,7/4z/4D,7/4(5:4z/4|G,,7/4z/4G,7/4z/4|G,7/4(5:4z/4G,,7/4z/4|
D,,7/4z/4D,7/4(5:4z/4|D,,7/4z/4D,7/4z/4|D,,7/4(5:4z/4D,,7/4z/4|G,,7/4z/4(5:3G,E,G,|
C,7/4z/4E,,7/4(5:4z/4|G,,7/4z/4B,,7/4z/4|C,z31/64G,7/16E,z/2G,7/16|C7/4(5:4z/4D,E,F,|
G,7/4(5:4z/4G,7/4z/4|G,,7/4z/4G,,z/2G,,7/16|C,7/4(5:4z/4G,E,G,|C,7/4(5:4z/4G,E,G,|
C,7/4(5:4z/4E,,7/4z/4|G,,7/4z/4B,,7/4(5:4z/4|C,z31/64G,7/16E,z/2G,7/16|zz31/32(5:3D,E,F,|
G,7/4z/4G,7/4(5:4z/4|G,,7/4z/4G,,7/4z/4|C,7/4(5:4z/4G,E,G,|C,7/4z2z7/32|
G,,7/4z3/16D,,7/4(5:4z/4|G,,7/4z/4G,,7/4z/4|G,,7/4(5:4z/4D,,7/4z/4|G,,7/4z/4G,,7/8zz/8|
G,,7/4(5:4z/4D,,7/4z/4|G,,7/4z/4G,,7/4(5:4z/4|C,,7/4z/4D,,7/4z/4|G,,7/4(5:4z/4G,,7/4z/4|
G,,7/4z/4D,,7/4(5:4z/4|G,,7/4z/4G,,7/4z/4|G,,7/4(5:4z/4D,,7/4z/4|G,,7/4z/4G,,7/8zz/8|
G,,7/4(5:4z/4D,,7/4z/4|G,,7/4z/4G,,7/4(5:4z/4|C,,7/4z/4D,,7/4z/4|G,,7/4


